X:377
T: ES BLIES EIN JAEGER WOL IN SEIN HORN
N: F0667
O: Europa, Mitteleuropa, Deutschland
R: Staende -, Jaeger - Lied, Liebe
M: 6/8
L: 1/16
K: E
B,2 | B,4B,2A,3CD2 | E4E2E4
E2 | F4B,2F4B,2 | G8z2
G,2 | G,3G,G,2C3CC2 | D3CD2E4
E2 | F4F2F4F2 | G6-G4
G2 | F4B,2B,3CB,2 | E3EE2E4
E2 | E4D2E2E2F2 | G4G2G4
B,2 | A6A6 | G6G6
F6F6 | E6
E6 | E3EE2D3CD2 | E6
E6 | E3EE2D3CD2 | E4z6

